icons/pregnant_2426w_fill.svg

<svg width="48" height="48" viewBox="0 0 48 48" fill="none" xmlns="http://www.w3.org/2000/svg">
<path d="M38.9846 32.0909C39.4851 32.3243 40.0801 32.1077 40.3135 31.6072C41.5892 28.8715 42.1564 25.859 41.963 22.8467C41.7696 19.8344 40.8218 16.9191 39.2067 14.3691C37.5917 11.819 35.3613 9.71601 32.7207 8.2536C30.0801 6.79119 27.1142 6.01631 24.0958 6.00025C21.0773 5.9842 18.1033 6.72747 15.4473 8.16171C12.7913 9.59594 10.5387 11.6751 8.89659 14.2078C7.2545 16.7406 6.27572 19.6456 6.05028 22.6556C5.82484 25.6657 6.35998 28.6841 7.60649 31.4332C7.83456 31.9362 8.4272 32.1591 8.93019 31.931C9.43319 31.7029 9.65606 31.1103 9.42799 30.6073C8.31999 28.1637 7.8443 25.4806 8.04469 22.805C8.24508 20.1294 9.11512 17.5472 10.5747 15.2958C11.5183 13.8405 12.6886 12.5537 14.036 11.4813C14.1751 11.6628 14.3142 11.8413 14.449 12.0142C14.5646 12.1625 14.6775 12.3074 14.784 12.446C15.2027 12.991 15.5422 13.4638 15.7688 13.8944C15.9973 14.3289 16.0556 14.6194 16.037 14.8168C16.0223 14.9726 15.9493 15.1974 15.587 15.4955L14.8397 16.1103C14.2504 16.5951 13.8792 17.2101 13.7772 17.8854C13.6759 18.5554 13.8528 19.2014 14.2086 19.7228C14.9233 20.7704 16.322 21.3002 17.8157 20.9022C17.9486 20.8668 18.0451 20.8456 18.1145 20.8332C18.1548 20.8986 18.2049 20.9862 18.2769 21.1136L18.8506 22.3855L15.6071 23.447C14.5573 23.7905 13.9848 24.9201 14.3284 25.9698C14.6719 27.0196 15.8014 27.5921 16.8512 27.2486L18.5827 26.6819L20.0852 30.1251C20.3888 30.8209 21.0601 31.2848 21.8182 31.3227C24.8949 31.4768 27.2737 30.3494 28.7725 28.7507C29.5075 27.9666 30.0366 27.0615 30.3143 26.1405C30.5824 25.2509 30.6613 24.1763 30.2378 23.1849C29.8807 22.3488 29.0047 21.8588 28.1054 21.992L26.6252 22.2114L25.8994 19.9865C25.5569 18.9364 24.4279 18.3628 23.3778 18.7054C22.3277 19.0479 21.7541 20.1769 22.0966 21.227L23.3462 25.0576C23.6326 25.9358 24.4795 26.497 25.3879 26.4325C24.8688 26.8239 24.1528 27.1575 23.2094 27.2833L21.5217 23.4157C21.4894 23.3416 21.453 23.2703 21.413 23.2021L20.0629 20.209L20.0212 20.135C19.9231 19.961 19.8108 19.7618 19.6925 19.5945C19.5594 19.4064 19.3643 19.1768 19.0662 19.0152C18.4636 18.6885 17.8017 18.8361 17.3008 18.9696C16.5451 19.171 16.0509 18.8745 15.8607 18.5957C15.764 18.4539 15.7354 18.3118 15.7547 18.1842C15.7732 18.0621 15.8484 17.8703 16.1104 17.6548L16.8576 17.04C17.5409 16.4779 17.9535 15.7964 18.0281 15.0043C18.0988 14.254 17.8501 13.5551 17.5388 12.9634C17.2256 12.3679 16.7927 11.7777 16.3699 11.2275C16.245 11.0649 16.1213 10.9061 15.9991 10.7494C15.9347 10.6667 15.8705 10.5843 15.807 10.5025C15.7635 10.4465 15.7203 10.3907 15.6774 10.3349C15.9135 10.1911 16.1536 10.0533 16.3976 9.92151C18.7585 8.64664 21.4021 7.98595 24.0851 8.00022C26.7682 8.0145 29.4046 8.70328 31.7517 10.0032C34.0989 11.3031 36.0815 13.1724 37.5171 15.4392C38.9527 17.7059 39.7952 20.2973 39.9671 22.9748C40.139 25.6524 39.6348 28.3303 38.5009 30.762C38.2675 31.2625 38.484 31.8575 38.9846 32.0909Z" fill="black"/>
<path d="M35.2109 36.1315C35.1383 35.6957 35.4327 35.2835 35.8685 35.2109C36.3043 35.1383 36.7165 35.4327 36.7891 35.8685L37.2532 38.6528L37.8054 37.6864C37.9478 37.4372 38.2129 37.2833 38.5 37.2833C38.7871 37.2833 39.0522 37.4372 39.1946 37.6864L39.7468 38.6528L40.2109 35.8685C40.2835 35.4327 40.6957 35.1383 41.1315 35.2109C41.5673 35.2835 41.8618 35.6957 41.7891 36.1315L40.9558 41.1315C40.9002 41.4653 40.6406 41.7279 40.3075 41.7875C39.9745 41.8471 39.6399 41.6907 39.4721 41.3969L38.5 39.6958L37.5279 41.3969C37.3601 41.6907 37.0255 41.8471 36.6925 41.7875C36.3594 41.7279 36.0998 41.4653 36.0442 41.1315L35.2109 36.1315Z" fill="black"/>
<path d="M10.2 37.25C10.2 37.1783 10.1672 37.0796 10.0485 36.9807C9.92816 36.8804 9.73682 36.8 9.50001 36.8H8.50001C8.10881 36.8 7.88078 37.0068 7.82185 37.1457C7.64933 37.5525 7.17974 37.7423 6.77298 37.5698C6.36623 37.3973 6.17635 36.9277 6.34887 36.521C6.70177 35.6889 7.58498 35.2 8.50001 35.2H9.50001C10.6275 35.2 11.8 35.9874 11.8 37.25C11.8 37.9085 11.4579 38.4597 10.9915 38.8131L9.26908 40.2H11C11.4418 40.2 11.8 40.5582 11.8 41C11.8 41.4418 11.4418 41.8 11 41.8H7.00001C6.66072 41.8 6.35834 41.586 6.24553 41.266C6.13271 40.946 6.23401 40.5897 6.49827 40.3769L9.99827 37.5586C10.006 37.5524 10.0138 37.5463 10.0217 37.5404C10.1623 37.4356 10.2 37.3257 10.2 37.25Z" fill="black"/>
<path d="M25.5485 36.9807C25.6672 37.0796 25.7 37.1783 25.7 37.25C25.7 37.3257 25.6623 37.4356 25.5217 37.5404C25.5138 37.5463 25.506 37.5524 25.4983 37.5586L21.9983 40.3769C21.734 40.5897 21.6327 40.946 21.7455 41.266C21.8583 41.586 22.1607 41.8 22.5 41.8H26.5C26.9418 41.8 27.3 41.4418 27.3 41C27.3 40.5582 26.9418 40.2 26.5 40.2H24.7691L26.4915 38.8131C26.9579 38.4597 27.3 37.9085 27.3 37.25C27.3 35.9874 26.1275 35.2 25 35.2H24C23.085 35.2 22.2018 35.6889 21.8489 36.521C21.6763 36.9277 21.8662 37.3973 22.273 37.5698C22.6797 37.7423 23.1493 37.5525 23.3219 37.1457C23.3808 37.0068 23.6088 36.8 24 36.8H25C25.2368 36.8 25.4282 36.8804 25.5485 36.9807Z" fill="black"/>
<path fill-rule="evenodd" clip-rule="evenodd" d="M17.3 36C17.3 35.6557 17.0797 35.3499 16.753 35.2411C16.4263 35.1322 16.0666 35.2445 15.86 35.52L12.86 39.52C12.6782 39.7624 12.649 40.0867 12.7845 40.3578C12.92 40.6288 13.197 40.8 13.5 40.8H15.7V41C15.7 41.4418 16.0582 41.8 16.5 41.8C16.9418 41.8 17.3 41.4418 17.3 41V40.8H17.5C17.9418 40.8 18.3 40.4418 18.3 40C18.3 39.5582 17.9418 39.2 17.5 39.2H17.3V36ZM15.1 39.2L15.7 38.4V39.2H15.1Z" fill="black"/>
<path d="M18.7 39C18.7 38.5582 19.0582 38.2 19.5 38.2H20.5C20.9418 38.2 21.3 38.5582 21.3 39C21.3 39.4418 20.9418 39.8 20.5 39.8H19.5C19.0582 39.8 18.7 39.4418 18.7 39Z" fill="black"/>
<path fill-rule="evenodd" clip-rule="evenodd" d="M31.6754 37.113C31.6149 36.9508 31.4323 36.8 31.1805 36.8H30.3195C29.9913 36.8 29.8 37.0417 29.8 37.25V37.7629C29.9675 37.7217 30.1418 37.7 30.3195 37.7H31.1805C32.3097 37.7 33.3 38.5776 33.3 39.75C33.3 40.9224 32.3097 41.8 31.1805 41.8H30.3195C29.1903 41.8 28.2 40.9224 28.2 39.75V37.25C28.2 36.0776 29.1903 35.2 30.3195 35.2H31.1805C32.0777 35.2 32.8727 35.7448 33.1745 36.5537C33.3289 36.9676 33.1185 37.4284 32.7046 37.5829C32.2906 37.7373 31.8298 37.5269 31.6754 37.113ZM30.3195 39.3C29.9913 39.3 29.8 39.5417 29.8 39.75C29.8 39.9583 29.9913 40.2 30.3195 40.2H31.1805C31.5088 40.2 31.7 39.9583 31.7 39.75C31.7 39.5417 31.5088 39.3 31.1805 39.3H30.3195Z" fill="black"/>
<path d="M34.9423 19.8092C33.9628 21.6769 31.6547 22.397 29.787 21.4175C27.9193 20.438 27.1992 18.1299 28.1787 16.2622C29.1581 14.3945 31.4662 13.6744 33.334 14.6539C35.2017 15.6333 35.9218 17.9414 34.9423 19.8092Z" fill="black"/>
</svg>

<svg
  xmlns="http://www.w3.org/2000/svg"
  width="24"
  height="24"
  viewBox="0 0 24 24"
  fill="none"
  stroke="currentColor"
  stroke-width="2"
  stroke-linecap="round"
  stroke-linejoin="round"
>
  <path d="M38.985 32.09a1 1 0 0 0 1.328-.483 18 18 0 1 0-32.707-.174 1 1 0 1 0 1.822-.826 16 16 0 0 1 4.608-19.126l.413.533q.175.223.335.432c.419.545.758 1.018.985 1.448.228.435.287.725.268.923-.015.156-.088.38-.45.678l-.747.615c-.59.485-.96 1.1-1.063 1.775-.101.67.076 1.316.432 1.838.714 1.047 2.113 1.577 3.607 1.18q.197-.052.299-.07c.04.066.09.153.162.28l.574 1.273-3.244 1.061a2 2 0 1 0 1.244 3.802l1.732-.567 1.502 3.443a2 2 0 0 0 1.733 1.198c3.077.154 5.456-.974 6.954-2.572.736-.784 1.265-1.69 1.542-2.61.268-.89.347-1.965-.076-2.956a2 2 0 0 0-2.133-1.193l-1.48.22-.726-2.226a2 2 0 1 0-3.802 1.241l1.25 3.83a2 2 0 0 0 2.04 1.376c-.518.39-1.234.724-2.178.85l-1.687-3.867a2 2 0 0 0-.109-.214l-1.35-2.993-.042-.074c-.098-.174-.21-.373-.329-.54a1.86 1.86 0 0 0-.626-.58c-.602-.326-1.264-.179-1.765-.045-.756.201-1.25-.095-1.44-.374a.57.57 0 0 1-.106-.412c.018-.122.093-.314.355-.53l.748-.614c.683-.562 1.095-1.244 1.17-2.036.07-.75-.178-1.449-.49-2.04-.312-.596-.745-1.186-1.168-1.737L16 10.75l-.193-.247-.13-.167q.355-.216.72-.413a16 16 0 0 1 22.104 20.84 1 1 0 0 0 .484 1.329" />
  <path d="M35.21 36.132a.8.8 0 0 1 1.58-.264l.463 2.785.552-.967a.8.8 0 0 1 1.39 0l.552.967.464-2.785a.8.8 0 0 1 1.578.264l-.833 5a.8.8 0 0 1-1.484.265l-.972-1.701-.972 1.7a.8.8 0 0 1-1.484-.264z" />
  <path d="M10.2 37.25c0-.072-.033-.17-.151-.27a.86.86 0 0 0-.549-.18h-1c-.391 0-.62.207-.678.346a.8.8 0 0 1-1.473-.625C6.702 35.689 7.585 35.2 8.5 35.2h1c1.127 0 2.3.787 2.3 2.05 0 .658-.342 1.21-.809 1.563L9.27 40.2H11a.8.8 0 0 1 0 1.6H7a.8.8 0 0 1-.502-1.423l3.5-2.818.024-.019c.14-.104.178-.214.178-.29" />
  <path d="M25.549 36.98c.118.1.151.198.151.27 0 .076-.038.186-.178.29l-.024.019-3.5 2.818A.8.8 0 0 0 22.5 41.8h4a.8.8 0 0 0 0-1.6h-1.73l1.721-1.387c.467-.353.809-.905.809-1.563 0-1.263-1.172-2.05-2.3-2.05h-1c-.915 0-1.798.489-2.151 1.321a.8.8 0 1 0 1.473.625c.059-.14.287-.346.678-.346h1a.86.86 0 0 1 .549.18" />
  <path
    fill-rule="evenodd"
    d="M17.3 36a.8.8 0 0 0-1.44-.48l-3 4a.8.8 0 0 0 .64 1.28h2.2v.2a.8.8 0 0 0 1.6 0v-.2h.2a.8.8 0 0 0 0-1.6h-.2zm-2.2 3.2.6-.8v.8z"
    clip-rule="evenodd"
  />
  <path d="M18.7 39a.8.8 0 0 1 .8-.8h1a.8.8 0 0 1 0 1.6h-1a.8.8 0 0 1-.8-.8" />
  <path
    fill-rule="evenodd"
    d="M31.675 37.113a.52.52 0 0 0-.495-.313h-.86c-.329 0-.52.242-.52.45v.513q.253-.062.52-.063h.86c1.13 0 2.12.878 2.12 2.05s-.99 2.05-2.12 2.05h-.86c-1.13 0-2.12-.878-2.12-2.05v-2.5c0-1.172.99-2.05 2.12-2.05h.86c.898 0 1.693.545 1.995 1.354a.8.8 0 0 1-1.5.559M30.32 39.3c-.329 0-.52.242-.52.45s.191.45.52.45h.86c.329 0 .52-.242.52-.45s-.191-.45-.52-.45z"
    clip-rule="evenodd"
  />
  <path d="M34.942 19.81a3.819 3.819 0 1 1-6.763-3.548 3.819 3.819 0 0 1 6.763 3.547" />
</svg>
